icon-themes/sifr_svg/cmd/sc_size.svg

<svg viewBox="0 0 16 11" xmlns="http://www.w3.org/2000/svg"><g fill="#555753"><path d="m5 0v4h2v-1h7v1h2v-4h-2v1h-7v-1zm-5 5v2h1v2h-1v2h4v-2h-1v-2h1v-2z"/><path d="m5 5v6h11v-6zm2 2h7v2h-7z" opacity=".35"/></g></svg>

<svg xmlns="http://www.w3.org/2000/svg" viewBox="0 0 16 11">
  <path
     style="fill:#555753"
     d="M 5,0 V 4 H 7 V 3 h 7 v 1 h 2 V 0 H 14 V 1 H 7 V 0 Z M 0,5 V 7 H 1 V 9 H 0 v 2 H 4 V 9 H 3 V 7 H 4 V 5 Z"
     />
  <path
     style="fill:#555753;opacity:0.35"
     d="m 5,5 v 6 H 16 V 5 Z m 2,2 h 7 V 9 H 7 Z"
     />
</svg>
